packages/admin/admin-icons/icons/columns-4.svg

<svg xmlns="http://www.w3.org/2000/svg" width="16" height="16" viewBox="0 0 16 16"><path fill="#242424" fill-rule="evenodd" d="M13.5,2 C13.7761424,2 14,2.22385763 14,2.5 C14,2.74545989 13.8231248,2.94960837 13.5898756,2.99194433 L13.5,3 L13,3 L13,13 L15,13 L15,2.5 C15,2.25454011 15.1768752,2.05039163 15.4101244,2.00805567 L15.5,2 C15.7454599,2 15.9496084,2.17687516 15.9919443,2.41012437 L16,2.5 L16,13.5 C16,13.7454599 15.8231248,13.9496084 15.5898756,13.9919443 L15.5,14 L12.5,14 C12.2545401,14 12.0503916,13.8231248 12.0080557,13.5898756 L12,13.5 L12,2.5 C12,2.25454011 12.1768752,2.05039163 12.4101244,2.00805567 L12.5,2 L13.5,2 Z M7.5,2 C7.77614237,2 8,2.22385763 8,2.5 C8,2.74545989 7.82312484,2.94960837 7.58987563,2.99194433 L7.5,3 L7,3 L7,13 L9,13 L9,2.5 C9,2.25454011 9.17687516,2.05039163 9.41012437,2.00805567 L9.5,2 C9.74545989,2 9.94960837,2.17687516 9.99194433,2.41012437 L10,2.5 L10,13.5 C10,13.7454599 9.82312484,13.9496084 9.58987563,13.9919443 L9.5,14 L6.5,14 C6.25454011,14 6.05039163,13.8231248 6.00805567,13.5898756 L6,13.5 L6,2.5 C6,2.25454011 6.17687516,2.05039163 6.41012437,2.00805567 L6.5,2 L7.5,2 Z M1.5,2 C1.77614237,2 2,2.22385763 2,2.5 C2,2.74545989 1.82312484,2.94960837 1.58987563,2.99194433 L1.5,3 L1,3 L1,13 L3,13 L3,2.5 C3,2.25454011 3.17687516,2.05039163 3.41012437,2.00805567 L3.5,2 C3.74545989,2 3.94960837,2.17687516 3.99194433,2.41012437 L4,2.5 L4,13.5 C4,13.7454599 3.82312484,13.9496084 3.58987563,13.9919443 L3.5,14 L0.5,14 C0.254540111,14 0.0503916296,13.8231248 0.00805566941,13.5898756 L0,13.5 L0,2.5 C0,2.25454011 0.176875161,2.05039163 0.410124368,2.00805567 L0.5,2 L1.5,2 Z"/></svg>

<svg width="16" height="16" fill="none" viewBox="0 0 16 16">
  <path fill="#242424" fill-rule="evenodd" d="M12 2.501a.5.5 0 0 1 .41-.492l.09-.008h1a.5.5 0 0 1 .09.992L13.5 3H13v10h2V2.5a.5.5 0 0 1 .41-.492L15.5 2a.5.5 0 0 1 .492.41L16 2.5v11a.5.5 0 0 1-.41.492L15.5 14h-3a.5.5 0 0 1-.492-.41L12 13.5v-11Zm-6 0a.5.5 0 0 1 .41-.492l.09-.008h1a.5.5 0 0 1 .09.992L7.5 3H7v10h2V2.5a.5.5 0 0 1 .41-.492L9.5 2a.5.5 0 0 1 .492.41L10 2.5v11a.5.5 0 0 1-.41.492L9.5 14h-3a.5.5 0 0 1-.492-.41L6 13.5v-11Zm-6 0a.5.5 0 0 1 .41-.492l.09-.008h1a.5.5 0 0 1 .09.992L1.5 3H1v10h2V2.5a.5.5 0 0 1 .41-.492L3.5 2a.5.5 0 0 1 .492.41L4 2.5v11a.5.5 0 0 1-.41.492L3.5 14h-3a.5.5 0 0 1-.492-.41L0 13.5v-11Z" clip-rule="evenodd"/>
</svg>
